src/assets/duotone/SliderVertical1.svg

<svg width="24" height="24" viewBox="0 0 24 24"  xmlns="http://www.w3.org/2000/svg">
<path opacity="0.4" d="M2 9V15C2 16.66 3.34 18 5 18H19C20.66 18 22 16.66 22 15V9C22 7.34 20.66 6 19 6H5C3.34 6 2 7.34 2 9Z" />
<path d="M5.33008 5.33V5.67C5.33008 5.79 5.33008 5.9 5.34008 6.02C5.39008 6.01 5.44008 6 5.50008 6H7.00008H17.0001H18.5001C18.5601 6 18.6101 6.01 18.6601 6.02C18.6701 5.91 18.6701 5.8 18.6701 5.67V5.33C18.6701 2.67 18.0001 2 15.3301 2H8.67008C6.00008 2 5.33008 2.67 5.33008 5.33Z" />
<path d="M18.5001 18.0005H17.0001H7.00008H5.50008C5.44008 18.0005 5.39008 17.9905 5.34008 17.9805C5.33008 18.0905 5.33008 18.2005 5.33008 18.3305V18.6705C5.33008 21.3305 6.00008 22.0005 8.67008 22.0005H15.3301C18.0001 22.0005 18.6701 21.3305 18.6701 18.6705V18.3305C18.6701 18.2105 18.6701 18.1005 18.6601 17.9805C18.6101 17.9905 18.5601 18.0005 18.5001 18.0005Z" />
</svg>

<?xml version="1.0" encoding="UTF-8"?>
<svg width="24" height="24" viewBox="0 0 24 24" xmlns="http://www.w3.org/2000/svg">
 <path d="m2 9v6c0 1.66 1.34 3 3 3h14c1.66 0 3-1.34 3-3v-6c0-1.66-1.34-3-3-3h-14c-1.66 0-3 1.34-3 3z" opacity=".4"/>
 <path d="m5.3301 5.33v0.34c0 0.12 0 0.23 0.01 0.35 0.05-0.01 0.1-0.02 0.16-0.02h13c0.06 0 0.11 0.01 0.16 0.02 0.01-0.11 0.01-0.22 0.01-0.35v-0.34c0-2.66-0.67-3.33-3.34-3.33h-6.66c-2.67 0-3.34 0.67-3.34 3.33z"/>
 <path d="m18.5 18h-13c-0.06 0-0.11-0.01-0.16-0.02-0.01 0.11-0.01 0.22-0.01 0.35v0.34c0 2.66 0.67 3.33 3.34 3.33h6.66c2.67 0 3.34-0.67 3.34-3.33v-0.34c0-0.12 0-0.23-0.01-0.35-0.05 0.01-0.1 0.02-0.16 0.02z"/>
</svg>
